X: 447
T: Wangleni renyang wangbuliao hua
%%abc-version 2.0
%%abcx-abcm2ps-target-version 5.9.1 (29 Sep 2008)
%%abc-creator hum2abc beta
%%abcx-conversion-date 2013/10/02 07:52:30
%%abc-edited-by Helmut Schaffrath
%%humdrum-veritas 2562561650
%%humdrum-veritas-data 2719833245
%%continueall 1
%%barnumbers 0
L: 1/8
M: 2/4
K: D
e ee2 [I:setbarnb 1]| 
ef2e | 
d2B F | 
E4 | 
e e e e | 
e f/ f/ f e | 
d2e2 | 
e dB2 |]  



